X:1
T:Title
%%score ( 1 2 3 ) { ( 4 7 ) | ( 5 6 ) }
L:1/8
Q:1/4=108
M:4/4
K:C
V:1 treble nm="Grand Piano, Soprano"
V:2 treble 
V:3 treble 
V:4 treble nm="Choir Pad, Herzegovina, G. B. Lissant"
V:7 treble 
V:5 bass 
V:6 bass 
V:1
 z4 .A2 z2 | [Ge]2 [Gd]2 [Gc]2 [FB]2 | [DA]2 [EG]2 [Ac]2 [GB]2 | [^FA]2 G2 D2 C2 | z4 .A2 z2 | %5
 [Ge]2 [Fd]2 [Ec]2 [_EB]2 | z4 z2 E2- | E z z2 z4 | [CE]2 B,2- [B,E-]/E/[B,F] [CE]2 | %9
 [DG]2 [EG]2 GB [Dc]2 | [DB]2 [EA]2 BcB-[^CB] | [_EA]2 G4- [FG]2 | [DG]2 [EG]2 ed [Ec]2 | %13
 G2 [GA]2 [FB]2 [Ec]2 | [Af]2 [Ge]2 [Gc]2 [Fc]2- | [Fc][DB] [Ec]6- | [Ec]2 z2 z4 |] %17
V:2
 [EG]2 [EG]2 F-[FB] [Gc]2 | x8 | x8 | x8 | [FG]2 [EG]2 D-[DB] [Ec]2 | x8 | [_EA]2 [=EG]2 [CE]2 C2 | %7
 z D C6 | z2 D2 z4 | z4 E2 z2 | z4 E2 .E2 | z2 =E4 z2 | z4 F2 z2 | x8 | x8 | x8 | x8 |] %17
V:3
 x8 | x8 | x8 | x8 | x8 | x8 | x8 | B,2 z2 z4 | x8 | x8 | x8 | x8 | x8 | x8 | x8 | x8 | x8 |] %17
V:4
 C2 C2 C2 C2 | C2 F2 E2 D2 | A,B, C2 E2 D2- | D2[K:bass] B,4 G,2 | A,B, C2 ^F,2 G,2 | %5
 C2 B,2 A,2 B,2 | z B, C2 G,2 G,2 | F,2 E,6 | G,2 G,F, E,G, G,2 | G,2 B,2 C2 A,2 | %10
 G,2 G,2 G,2 ^F,2 | B,2 B,6 | B,2 CG, A,B,[K:treble] C2 | C2 C2 D2 C2 | C2 C2[K:bass] E2 D2 | %15
 G,2 G,6- | G,2 z2 z4 |] %17
V:5
 C,2 C,2 F,2 E,2 | C,2 B,,2 C,2 D,2 | F,2 E,2 C,2 D,2 | z C G,2 F,2 E,2 | D,2 C,2 C,2 C,2 | %5
 z2 ^G,2 z2 G,2 | z2 G,2 z2 G,,2 | G,,2 C,6 | C,2 z2 z D, C,2 | B,,2 E,2 A,2 ^F,2 | %10
 z2 C,2 B,,2 B,,2 | B,,2 E,4 D,2 | G,,2 C,2 C,2 C,2 | E,2 F,2 D,2 A,2 | F,2 G,2 G,2 G,2 | %15
 G,,2 C,6- | C,2 z2 z4 |] %17
V:6
 x8 | x8 | x8 | D,2 z2 z4 | x8 | x8 | x8 | x8 | x8 | x8 | x8 | x8 | x8 | x8 | x8 | x8 | x8 |] %17
V:7
 x8 | x8 | x8 | x2[K:bass] x6 | x8 | x8 | F,2 z2 z4 | x8 | x8 | x8 | x8 | x8 | x6[K:treble] x2 | %13
 x8 | x4[K:bass] x4 | x8 | x8 |] %17

